X: 1528
T: Harry McQueen's Two Step
B: australian traditional tunes wiki
M:4/4
L:1/8
R: Two Step
Q: 1/4=100
K:F
V:1 
FG||"1st Version""F"A>c F>dc2F>G|A>c A>c"C7"B4|B<de2B2c>B|d>e B>d"F"A2{B}F>G|
A>c F>dc2F>G|A>c A>c"C7"B3c|d>e f>e f>A c>c|d>B A>G"F"F4||
||"2nd Version""F"A2c>dc2F2|A>c A>c"C7"B3c|d2e2B3c|d>e Bd"F"A2 F>G|
A2c>dc2F2|A>c A>c"C7"B3c|d>e f>e fA Bc|dB G>E"F"F4||
% abcbook-tune_id 6342d53a2eb1679f378541f9


% abcbook-boost 0
% abcbook-tablature 
% abcbook-transpose 
% abcbook-lastupdated 1665324369497
% abcbook-soundfonts 
% abcbook-repeats 1
% NFF Book 2013

